svg/remove-alarm.svg

<?xml version="1.0" encoding="UTF-8"?>
<svg xmlns="http://www.w3.org/2000/svg" xmlns:xlink="http://www.w3.org/1999/xlink" width="32" height="32" viewBox="0 0 32 32">
<defs>
<clipPath id="clip-0">
<path clip-rule="nonzero" d="M 2 0 L 30 0 L 30 32 L 2 32 Z M 2 0 "/>
</clipPath>
<clipPath id="clip-1">
<path clip-rule="nonzero" d="M 0 32 L 0 0 L 32 0 L 32 32 Z M 16 9.855469 C 12.621094 9.855469 9.855469 12.621094 9.855469 16 C 9.855469 19.378906 12.621094 22.144531 16 22.144531 C 19.378906 22.144531 22.144531 19.378906 22.144531 16 C 22.144531 12.621094 19.378906 9.855469 16 9.855469 M 16 9.855469 "/>
</clipPath>
</defs>
<g clip-path="url(#clip-0)">
<g clip-path="url(#clip-1)">
<path fill-rule="nonzero" fill="rgb(0%, 0%, 0%)" fill-opacity="1" d="M 16 0 C 14.585938 0 13.441406 1.148438 13.441406 2.5625 C 13.441406 3.976562 14.589844 5.121094 16.003906 5.121094 C 17.417969 5.121094 18.5625 3.972656 18.5625 2.558594 C 18.5625 1.144531 17.414062 0 16 0 M 12.398438 3.898438 C 9.476562 5.152344 7.679688 7.972656 7.679688 11.519531 C 7.679688 18.558594 5.246094 20.328125 3.800781 21.378906 C 3.15625 21.84375 2.558594 22.277344 2.558594 23.039062 C 2.558594 25.734375 6.578125 26.878906 16 26.878906 C 25.421875 26.878906 29.441406 25.734375 29.441406 23.039062 C 29.441406 22.277344 28.84375 21.84375 28.199219 21.378906 C 26.753906 20.328125 24.320312 18.558594 24.320312 11.519531 C 24.320312 7.960938 22.527344 5.148438 19.601562 3.898438 C 19.035156 5.398438 17.601562 6.394531 16 6.398438 C 14.359375 6.398438 12.949219 5.351562 12.398438 3.898438 M 12.160156 28.078125 L 12.160156 28.160156 C 12.164062 30.28125 13.878906 31.996094 16 32 C 18.121094 31.996094 19.835938 30.28125 19.839844 28.160156 L 19.839844 28.078125 C 17.28125 28.1875 14.71875 28.1875 12.160156 28.078125 M 12.160156 28.078125 "/>
</g>
</g>
<path fill-rule="nonzero" fill="rgb(0%, 0%, 0%)" fill-opacity="1" d="M 16 10.878906 C 13.183594 10.878906 10.878906 13.183594 10.878906 16 C 10.878906 18.816406 13.183594 21.121094 16 21.121094 C 18.816406 21.121094 21.121094 18.816406 21.121094 16 C 21.121094 13.183594 18.816406 10.878906 16 10.878906 M 18.152344 17.433594 C 18.25 17.527344 18.304688 17.65625 18.304688 17.792969 C 18.304688 17.929688 18.25 18.058594 18.152344 18.152344 C 18.054688 18.242188 17.925781 18.296875 17.792969 18.304688 C 17.65625 18.300781 17.53125 18.246094 17.433594 18.152344 L 16 16.71875 L 14.566406 18.152344 C 14.46875 18.246094 14.339844 18.300781 14.207031 18.304688 C 14.070312 18.300781 13.945312 18.246094 13.847656 18.152344 C 13.75 18.058594 13.691406 17.929688 13.691406 17.792969 C 13.691406 17.660156 13.75 17.527344 13.847656 17.433594 L 15.28125 16 L 13.847656 14.566406 C 13.746094 14.472656 13.691406 14.34375 13.691406 14.207031 C 13.691406 14.070312 13.746094 13.941406 13.847656 13.847656 C 13.941406 13.75 14.070312 13.699219 14.207031 13.699219 C 14.339844 13.699219 14.46875 13.75 14.566406 13.847656 L 16 15.28125 L 17.433594 13.847656 C 17.527344 13.75 17.65625 13.691406 17.792969 13.691406 C 17.929688 13.691406 18.058594 13.746094 18.152344 13.847656 C 18.25 13.941406 18.308594 14.070312 18.308594 14.207031 C 18.308594 14.34375 18.25 14.472656 18.152344 14.566406 L 16.71875 16 Z M 18.152344 17.433594 "/>
</svg>

<svg role="img" viewBox="0 0 32 32" height="32" width="32" xmlns="http://www.w3.org/2000/svg"><defs><clipPath id="208__206__92__90__347__345__171__169__256__254__349__347__174__172__425__423__505__503__342__340__remove-alarm_svg__svg/remove-alarm.svg997__svg/remove-alarm.svg993__clip-0"><path d="M2 0h28v32H2Zm0 0"/></clipPath><clipPath id="209__207__93__91__348__346__172__170__257__255__350__348__175__173__426__424__506__504__343__341__remove-alarm_svg__svg/remove-alarm.svg999__svg/remove-alarm.svg995__clip-1"><path d="M0 32V0h32v32ZM16 9.855c-3.379 0-6.145 2.766-6.145 6.145 0 3.379 2.766 6.145 6.145 6.145 3.379 0 6.145-2.766 6.145-6.145 0-3.379-2.766-6.145-6.145-6.145m0 0"/></clipPath></defs><g clip-path="url(#208__206__92__90__347__345__171__169__256__254__349__347__174__172__425__423__505__503__342__340__remove-alarm_svg__svg/remove-alarm.svg997__svg/remove-alarm.svg993__clip-0)"><g clip-path="url(#209__207__93__91__348__346__172__170__257__255__350__348__175__173__426__424__506__504__343__341__remove-alarm_svg__svg/remove-alarm.svg999__svg/remove-alarm.svg995__clip-1)"><path d="M16 0a2.56 2.56 0 1 0 .004 5.121A2.56 2.56 0 0 0 16 0m-3.602 3.898C9.477 5.152 7.68 7.973 7.68 11.52c0 7.039-2.434 8.808-3.88 9.859-.644.465-1.241.898-1.241 1.66 0 2.695 4.02 3.84 13.441 3.84 9.422 0 13.441-1.145 13.441-3.84 0-.762-.597-1.195-1.242-1.66-1.445-1.05-3.879-2.82-3.879-9.86 0-3.558-1.793-6.37-4.718-7.62-.567 1.5-2 2.496-3.602 2.5-1.64 0-3.05-1.047-3.602-2.5m-.238 24.18v.081A3.844 3.844 0 0 0 16 32a3.844 3.844 0 0 0 3.84-3.84v-.082c-2.559.11-5.121.11-7.68 0m0 0"/></g></g><path d="M16 10.879c-2.816 0-5.121 2.305-5.121 5.121 0 2.816 2.305 5.121 5.121 5.121 2.816 0 5.121-2.305 5.121-5.121 0-2.816-2.305-5.121-5.121-5.121m2.152 6.555a.496.496 0 0 1 0 .718.586.586 0 0 1-.359.153.537.537 0 0 1-.36-.153L16 16.72l-1.434 1.433a.545.545 0 0 1-.359.153.537.537 0 0 1-.36-.153.5.5 0 0 1-.156-.359c0-.133.059-.266.157-.36L15.28 16l-1.433-1.434a.485.485 0 0 1-.157-.359c0-.137.055-.266.157-.36a.506.506 0 0 1 .718 0L16 15.282l1.434-1.433a.5.5 0 0 1 .359-.157c.137 0 .266.055.36.157a.5.5 0 0 1 .156.359.5.5 0 0 1-.157.36L16.72 16Zm0 0"/></svg>
